X: 37206
T: Sir Wilfred Laurier Marche
R: slide
M: 12/8
K: Cdorian
K: Bb Major
|:B|BFB BFB d3 B2 f|fdf fdf gfg e2 g|
geg geg b3- bag|fgf edc B3- B2:|
|:F|G2 F F2 e A3- A2 F|G2 F F2 d B3- Bdf|
f3- fed c3- cBA|Bdc BAG F3- F2 F|
G2 F F2 e A3- A2 F|G2 F F2 d B3- Bdf|
b3- bfd f3- fdf|1 agf edc B3- B2:|2 agf edc B3||
fga|b3 d3 f3 b3|a2 g g2 e g3- g2 g|
g2 e e2 d f3- f2 g|g2 f gf=e f3- fga|
b3 d3 f3 b3|a2 g g2 e g3- gga|
b3- bfd f3- fdf|agf edc B3- B2||

